X:1
T:Title
%%score { ( 1 4 ) | ( 2 3 ) }
L:1/8
Q:1/4=100
M:4/4
K:A
V:1 treble nm="Grand Piano"
V:4 treble 
V:2 bass 
V:3 bass 
V:1
 c2 cc c2 BA | [GB]2 [GB][Ac] [Bd]2 [EAc][DGB] | [CA][CAc] z2 [DF][DFB] z2 | %3
w: Wm.~B.~Bradbury * * * * *|||
 [CEA]2 [B,EG]2 [CEA]4 | c2 cc c2 BA | [GB]2 [GB][Ac] [Bd]2 [EAc][DGB] | %6
w: |||
 [CA][CAc] z2 [DF][DFB] z2 | [CEA]2 [B,EG]2 [CEA]4 | B2 BB B2 cB | A>B [Ac][A^d] [Ge]4 | %10
w: ||||
 [GB]2 [GB][GB] [EGB]2 [Ac][GB] | z z/ B/ [Ac][A^d] [Ge]4 | e2 ed c2 [Ec][EB] | E->[EB] cc B2 cB | %14
w: ||||
 Ac z2 F[FB] z2 | [EA]2 [DG]2 [CA]4 |] %16
w: ||
V:2
 [A,E]2 [A,E][A,E] [A,E]2 [G,B,E][F,CF] | [E,E]2 [E,D][E,C] [E,B,]2 E,E, | F,F, z2 D,D, z2 | %3
 E,2 E,2 A,,4 | [A,E]2 [A,E][A,E] [A,E]2 [G,B,E][F,CF] | [E,E]2 [E,D][E,C] [E,B,]2 E,E, | %6
 F,F, z2 D,D, z2 | E,2 E,2 A,,4 | [E,G,E]2 [E,G,E][E,G,E] [E,G,E]2 [E,G,E][E,G,E] | C2 z2 z4 | %10
 E,2 E,E, E,2 E,E, | A,>G, F,F, E,4 | [A,CE]2 [G,B,E][E,B,E] [A,E]2 [A,,A,][B,,G,] | %13
 [C,A,]>[E,G,] [A,E][A,E] [E,G,E]2 [E,G,E][^E,G,D] | [F,A,C][F,A,C] z2 [D,A,D][D,D] z2 | %15
 [E,C]2 [E,B,]2 [A,,A,]4 |] %16
V:3
 x8 | x8 | x8 | x8 | x8 | x8 | x8 | x8 | x8 | A,->[G,A,E] [F,A,][F,A,] [E,B,]4 | x8 | x8 | x8 | %13
 x8 | x8 | x8 |] %16
V:4
 x8 | x8 | x8 | x8 | x8 | x8 | x8 | x8 | x8 | x8 | x8 | A2 z2 z4 | x8 | A2 z2 z4 | x8 | x8 |] %16

